data/tilesets/flags/slovenia.svg

<?xml version="1.0" encoding="UTF-8" standalone="no"?>
<svg
   xmlns:dc="http://purl.org/dc/elements/1.1/"
   xmlns:cc="http://creativecommons.org/ns#"
   xmlns:rdf="http://www.w3.org/1999/02/22-rdf-syntax-ns#"
   xmlns:svg="http://www.w3.org/2000/svg"
   xmlns="http://www.w3.org/2000/svg"
   xmlns:sodipodi="http://sodipodi.sourceforge.net/DTD/sodipodi-0.dtd"
   xmlns:inkscape="http://www.inkscape.org/namespaces/inkscape"
   id="svg552"
   sodipodi:version="0.32"
   width="196.87369mm"
   height="131.58528mm"
   sodipodi:docname="slovenia.svg"
   inkscape:version="1.0.2 (e86c870879, 2021-01-15)"
   version="1.1">
  <metadata
     id="metadata6637">
    <rdf:RDF>
      <cc:Work
         rdf:about="">
        <dc:format>image/svg+xml</dc:format>
        <dc:type
           rdf:resource="http://purl.org/dc/dcmitype/StillImage" />
      </cc:Work>
    </rdf:RDF>
  </metadata>
  <defs
     id="defs554" />
  <sodipodi:namedview
     id="base"
     inkscape:zoom="0.61181747"
     inkscape:cx="496.06299"
     inkscape:cy="248.03149"
     inkscape:window-width="830"
     inkscape:window-height="635"
     inkscape:window-x="269"
     inkscape:window-y="77"
     inkscape:current-layer="svg552"
     inkscape:document-rotation="0"
     showgrid="false"
     inkscape:window-maximized="0" />
  <g
     id="g6649"
     transform="scale(0.748084,1)">
    <rect
       y="0"
       x="0"
       height="497.33017"
       width="994.6604"
       id="rect555"
       style="font-size:12px;fill:#ffffff;fill-opacity:1;fill-rule:evenodd;stroke-width:1pt" />
    <rect
       y="331.55344"
       width="994.6604"
       height="165.77672"
       x="0"
       id="rect556"
       style="font-size:12px;fill:#de2918;fill-opacity:1;fill-rule:evenodd;stroke-width:1pt" />
    <rect
       y="165.77672"
       width="994.6604"
       height="165.77672"
       x="0"
       id="rect563"
       style="font-size:12px;fill:#08399c;fill-opacity:1;fill-rule:evenodd;stroke-width:1pt" />
  </g>
  <g
     id="g6639">
    <path
       transform="matrix(1.165015,0,0,1,-81.04471,-13.03642)"
       sodipodi:nodetypes="ccccccccccc"
       id="path694"
       d="m 311.663,103.348 c -3.351,59.885 -5.271,92.702 -13.098,107.885 -8.463,16.308 -16.696,28.248 -49.717,42.625 -33.022,-14.377 -41.255,-26.317 -49.718,-42.625 -7.827,-15.183 -9.747,-48 -13.098,-107.885 l 4.88,-1.915 c 9.824,-3.4903 17.154,-6.2979 22.576,-7.544 7.765,-1.9145 14.364,-4.0792 35.232,-4.5872 20.868,0.4182 27.5,2.7175 35.265,4.6321 5.377,1.3358 13.021,3.9639 22.772,7.5221 z"
       style="font-size:12px;fill:#de2918;fill-rule:evenodd;stroke-width:1pt" />
    <path
       transform="matrix(1.165015,0,0,1.000282,-81.04471,-13.10655)"
       sodipodi:nodetypes="ccccccccc"
       id="path675"
       d="m 306.853,101.427 c -3.17,59.739 -5.822,87.096 -9.958,100.249 -8.026,22.522 -20.732,34.87 -48.079,46.648 -27.346,-11.778 -40.052,-24.126 -48.078,-46.648 -4.136,-13.153 -6.749,-40.432 -9.828,-100.309 9.617,-3.4982 17.156,-6.2319 22.578,-7.478 7.765,-1.9145 14.364,-4.169 35.232,-4.5872 20.868,0.4182 27.545,2.6727 35.31,4.5872 5.422,1.2461 13.117,3.9798 22.823,7.538 z"
       style="font-size:12px;fill:#08399c;fill-rule:evenodd;stroke-width:1pt" />
    <path
       sodipodi:nodetypes="ccccccccccccc"
       id="path651"
       d="m 234.698,95.1828 1.134,3.2555 4.983,0.8285 -3.229,2.3612 3.122,2.531 -4.541,0.923 -1.382,2.95 -1.554,-3.038 -4.323,-0.744 2.942,-2.586 -3.029,-2.3535 4.785,-0.8896 z"
       style="font-size:12px;fill:#ffcc00;fill-rule:evenodd;stroke-width:1pt"
       transform="matrix(1.347046,0,0,1.110715,-107.3459,0.92219)" />
    <path
       transform="matrix(1.165015,0,0,1,-81.04471,-13.03642)"
       sodipodi:nodetypes="ccccccccccccccccccccccccccccccccc"
       id="path627"
       d="m 294.918,187.514 -3.194,-2.941 -2.308,-4.424 -4.521,-4.569 -2.356,-4.617 -4.521,-4.713 -2.212,-4.616 -2.404,-2.261 -1.587,-1.779 -4.084,4.172 -2.226,4.531 -2.774,2.93 -3.047,-2.773 -2.304,-4.727 -8.553,-17.695 -8.554,17.695 -2.304,4.727 -3.047,2.773 -2.774,-2.93 -2.226,-4.531 -4.084,-4.172 -1.587,1.779 -2.404,2.261 -2.212,4.616 -4.521,4.713 -2.356,4.617 -4.521,4.569 -2.308,4.424 -3.186,3.01 c 1.654,16.402 10.629,29.253 15.519,35.132 5.457,6.173 16.708,14.432 30.466,19.899 13.797,-5.35 25.204,-13.726 30.661,-19.899 4.89,-5.879 13.865,-18.73 15.529,-35.201 z"
       style="font-size:12px;fill:#ffffff;fill-rule:evenodd;stroke-width:1pt" />
    <path
       sodipodi:nodetypes="ccccccccccccc"
       id="path654"
       d="m 234.698,95.1828 1.134,3.2555 4.983,0.8285 -3.229,2.3612 3.122,2.531 -4.541,0.923 -1.382,2.95 -1.554,-3.038 -4.323,-0.744 2.942,-2.586 -3.029,-2.3535 4.785,-0.8896 z"
       style="font-size:12px;fill:#ffcc00;fill-rule:evenodd;stroke-width:1pt"
       transform="matrix(1.347046,0,0,1.110715,-91.32693,-24.2341)" />
    <path
       sodipodi:nodetypes="ccccccccccccc"
       id="path655"
       d="m 234.698,95.1828 1.134,3.2555 4.983,0.8285 -3.229,2.3612 3.122,2.531 -4.541,0.923 -1.382,2.95 -1.554,-3.038 -4.323,-0.744 2.942,-2.586 -3.029,-2.3535 4.785,-0.8896 z"
       style="font-size:12px;fill:#ffcc00;fill-rule:evenodd;stroke-width:1pt"
       transform="matrix(1.347046,0,0,1.110715,-123.3649,-24.28933)" />
    <path
       transform="matrix(1.165015,0,0,1,-81.04471,-13.03642)"
       sodipodi:nodetypes="cccccccccccccccccccccccccc"
       id="path664"
       d="m 287.777,210.249 -6.227,0.022 -5.746,-0.498 -6.96,-3.977 -7.845,0.055 -6.794,3.867 -5.359,0.552 -5.359,-0.552 -6.794,-3.867 -7.845,-0.055 -6.96,3.977 -5.746,0.498 -6.305,-0.101 -3.045,-6.009 0.113,-0.138 9.315,1.795 5.746,-0.498 6.96,-3.977 7.845,0.055 6.794,3.867 5.359,0.552 5.359,-0.552 6.794,-3.867 7.845,-0.055 6.96,3.977 5.746,0.498 9.066,-1.852 0.12,0.278 z"
       style="font-size:12px;fill:#08399c;fill-opacity:1;fill-rule:evenodd;stroke-width:1pt" />
    <path
       sodipodi:nodetypes="cccccccccccccccccccccccc"
       transform="matrix(1.165015,0,0,1,-81.09022,-3.81768)"
       id="path665"
       d="m 215.724,210.271 6.164,-0.498 6.96,-3.977 7.845,0.055 6.794,3.867 5.359,0.552 5.359,-0.552 6.794,-3.867 7.845,-0.055 6.96,3.977 6.248,0.498 4.031,-5.789 -0.136,-0.131 -4.319,1.467 -5.746,-0.498 -6.96,-3.977 -7.845,0.055 -6.794,3.867 -5.359,0.552 -5.359,-0.552 -6.794,-3.867 -7.845,-0.055 -6.96,3.977 -5.746,0.498 -4.233,-1.243 -0.051,0.242 z"
       style="font-size:12px;fill:#08399c;fill-opacity:1;fill-rule:evenodd;stroke-width:1pt" />
  </g>
</svg>

<?xml version="1.0" encoding="UTF-8" standalone="no"?>
<!-- Created with Sodipodi ("http://www.sodipodi.com/") -->
<svg
   xmlns:dc="http://purl.org/dc/elements/1.1/"
   xmlns:cc="http://web.resource.org/cc/"
   xmlns:rdf="http://www.w3.org/1999/02/22-rdf-syntax-ns#"
   xmlns:svg="http://www.w3.org/2000/svg"
   xmlns="http://www.w3.org/2000/svg"
   xmlns:sodipodi="http://inkscape.sourceforge.net/DTD/sodipodi-0.dtd"
   xmlns:inkscape="http://www.inkscape.org/namespaces/inkscape"
   id="svg552"
   sodipodi:version="0.32"
   width="744.09000px"
   height="140mm"
   sodipodi:docbase="/Users/daniel/Desktop"
   sodipodi:docname="slovenia.svg"
   inkscape:version="0.42">
  <metadata
     id="metadata6637">
    <rdf:RDF>
      <cc:Work
         rdf:about="">
        <dc:format>image/svg+xml</dc:format>
        <dc:type
           rdf:resource="http://purl.org/dc/dcmitype/StillImage" />
      </cc:Work>
    </rdf:RDF>
  </metadata>
  <defs
     id="defs554" />
  <sodipodi:namedview
     id="base"
     inkscape:zoom="0.61181747"
     inkscape:cx="496.06299"
     inkscape:cy="248.03149"
     inkscape:window-width="701"
     inkscape:window-height="507"
     inkscape:window-x="52"
     inkscape:window-y="187"
     inkscape:current-layer="svg552" />
  <g
     id="g6649"
     transform="scale(0.748084,1.000000)">
    <rect
       y="0.0000000"
       x="0.0000000"
       height="497.33017"
       width="994.66040"
       id="rect555"
       style="font-size:12.000000px;fill:#ffffff;fill-opacity:1.0000000;fill-rule:evenodd;stroke-width:1.0000000pt" />
    <rect
       y="331.55344"
       width="994.66040"
       height="165.77672"
       x="0.0000000"
       id="rect556"
       style="font-size:12.000000px;fill:#de2918;fill-opacity:1.0000000;fill-rule:evenodd;stroke-width:1.0000000pt" />
    <rect
       y="165.77672"
       width="994.66040"
       height="165.77672"
       x="0.0000000"
       id="rect563"
       style="font-size:12.000000px;fill:#08399c;fill-opacity:1.0000000;fill-rule:evenodd;stroke-width:1.0000000pt" />
  </g>
  <g
     id="g6639">
    <path
       transform="matrix(1.165015,0.000000,0.000000,1.000000,-81.04471,-13.03642)"
       sodipodi:nodetypes="ccccccccccc"
       id="path694"
       d="M 311.663 103.348 C 308.312 163.233 306.392 196.05 298.565 211.233 C 290.102 227.541 281.869 239.481 248.848 253.858 C 215.826 239.481 207.593 227.541 199.13 211.233 C 191.303 196.05 189.383 163.233 186.032 103.348 L 190.912 101.433 C 200.736 97.9427 208.066 95.1351 213.488 93.889 C 221.253 91.9745 227.852 89.8098 248.72 89.3018 C 269.588 89.72 276.22 92.0193 283.985 93.9339 C 289.362 95.2697 297.006 97.8978 306.757 101.456 L 311.663 103.348 z "
       style="font-size:12;fill:#de2918;fill-rule:evenodd;stroke-width:1pt;" />
    <path
       transform="matrix(1.165015,0.000000,0.000000,1.000282,-81.04471,-13.10655)"
       sodipodi:nodetypes="ccccccccc"
       id="path675"
       d="M 306.853 101.427 C 303.683 161.166 301.031 188.523 296.895 201.676 C 288.869 224.198 276.163 236.546 248.816 248.324 C 221.47 236.546 208.764 224.198 200.738 201.676 C 196.602 188.523 193.989 161.244 190.91 101.367 C 200.527 97.8688 208.066 95.1351 213.488 93.889 C 221.253 91.9745 227.852 89.72 248.72 89.3018 C 269.588 89.72 276.265 91.9745 284.03 93.889 C 289.452 95.1351 297.147 97.8688 306.853 101.427 z "
       style="font-size:12;fill:#08399c;fill-rule:evenodd;stroke-width:1pt;" />
    <path
       sodipodi:nodetypes="ccccccccccccc"
       id="path651"
       d="M 234.698 95.1828 L 235.832 98.4383 L 240.815 99.2668 L 237.586 101.628 L 240.708 104.159 L 236.167 105.082 L 234.785 108.032 L 233.231 104.994 L 228.908 104.25 L 231.85 101.664 L 228.821 99.3105 L 233.606 98.4209 L 234.698 95.1828 z "
       style="font-size:12;fill:#ffcc00;fill-rule:evenodd;stroke-width:1pt;"
       transform="matrix(1.347046,0.000000,0.000000,1.110715,-107.3459,0.922190)" />
    <path
       transform="matrix(1.165015,0.000000,0.000000,1.000000,-81.04471,-13.03642)"
       sodipodi:nodetypes="ccccccccccccccccccccccccccccccccc"
       id="path627"
       d="M 294.918 187.514 L 291.724 184.573 L 289.416 180.149 L 284.895 175.58 L 282.539 170.963 L 278.018 166.25 L 275.806 161.634 L 273.402 159.373 L 271.815 157.594 L 267.731 161.766 L 265.505 166.297 L 262.731 169.227 L 259.684 166.454 L 257.38 161.727 L 248.827 144.032 L 240.273 161.727 L 237.969 166.454 L 234.922 169.227 L 232.148 166.297 L 229.922 161.766 L 225.838 157.594 L 224.251 159.373 L 221.847 161.634 L 219.635 166.25 L 215.114 170.963 L 212.758 175.58 L 208.237 180.149 L 205.929 184.573 L 202.743 187.583 C 204.397 203.985 213.372 216.836 218.262 222.715 C 223.719 228.888 234.97 237.147 248.728 242.614 C 262.525 237.264 273.932 228.888 279.389 222.715 C 284.279 216.836 293.254 203.985 294.918 187.514 z "
       style="font-size:12;fill:#ffffff;fill-rule:evenodd;stroke-width:1pt;" />
    <path
       sodipodi:nodetypes="ccccccccccccc"
       id="path654"
       d="M 234.698 95.1828 L 235.832 98.4383 L 240.815 99.2668 L 237.586 101.628 L 240.708 104.159 L 236.167 105.082 L 234.785 108.032 L 233.231 104.994 L 228.908 104.25 L 231.85 101.664 L 228.821 99.3105 L 233.606 98.4209 L 234.698 95.1828 z "
       style="font-size:12;fill:#ffcc00;fill-rule:evenodd;stroke-width:1pt;"
       transform="matrix(1.347046,0.000000,0.000000,1.110715,-91.32693,-24.23410)" />
    <path
       sodipodi:nodetypes="ccccccccccccc"
       id="path655"
       d="M 234.698 95.1828 L 235.832 98.4383 L 240.815 99.2668 L 237.586 101.628 L 240.708 104.159 L 236.167 105.082 L 234.785 108.032 L 233.231 104.994 L 228.908 104.25 L 231.85 101.664 L 228.821 99.3105 L 233.606 98.4209 L 234.698 95.1828 z "
       style="font-size:12;fill:#ffcc00;fill-rule:evenodd;stroke-width:1pt;"
       transform="matrix(1.347046,0.000000,0.000000,1.110715,-123.3649,-24.28933)" />
    <path
       transform="matrix(1.165015,0.000000,0.000000,1.000000,-81.04471,-13.03642)"
       sodipodi:nodetypes="cccccccccccccccccccccccccc"
       id="path664"
       d="M 287.777 210.249 L 281.55 210.271 L 275.804 209.773 L 268.844 205.796 L 260.999 205.851 L 254.205 209.718 L 248.846 210.27 L 243.487 209.718 L 236.693 205.851 L 228.848 205.796 L 221.888 209.773 L 216.142 210.271 L 209.837 210.17 L 206.792 204.161 L 206.905 204.023 L 216.22 205.818 L 221.966 205.32 L 228.926 201.343 L 236.771 201.398 L 243.565 205.265 L 248.924 205.817 L 254.283 205.265 L 261.077 201.398 L 268.922 201.343 L 275.882 205.32 L 281.628 205.818 L 290.694 203.966 L 290.814 204.244 L 287.777 210.249 z "
       style="font-size:12;fill:#08399c;fill-rule:evenodd;stroke-width:1pt;fill-opacity:1;" />
    <path
       sodipodi:nodetypes="cccccccccccccccccccccccc"
       transform="matrix(1.165015,0.000000,0.000000,1.000000,-81.09022,-3.817680)"
       id="path665"
       d="M 215.724 210.271 L 221.888 209.773 L 228.848 205.796 L 236.693 205.851 L 243.487 209.718 L 248.846 210.27 L 254.205 209.718 L 260.999 205.851 L 268.844 205.796 L 275.804 209.773 L 282.052 210.271 L 286.083 204.482 L 285.947 204.351 L 281.628 205.818 L 275.882 205.32 L 268.922 201.343 L 261.077 201.398 L 254.283 205.265 L 248.924 205.817 L 243.565 205.265 L 236.771 201.398 L 228.926 201.343 L 221.966 205.32 L 216.22 205.818 L 211.987 204.575 L 211.936 204.817 L 215.724 210.271 z "
       style="font-size:12;fill:#08399c;fill-rule:evenodd;stroke-width:1pt;fill-opacity:1;" />
  </g>
</svg>
